public/ic_star_empty.svg

<svg width="24" height="25" viewBox="0 0 24 25" fill="none" xmlns="http://www.w3.org/2000/svg">
<g id="Ic&#195;&#180;ne">
<path id="Ic&#195;&#180;ne_2" fill-rule="evenodd" clip-rule="evenodd" d="M12 1.1499L15.386 8.4899L23.413 9.4419L17.478 14.9299L19.053 22.8579L12 18.9099L4.94698 22.8579L6.52198 14.9299L0.586975 9.4419L8.61398 8.4899L12 1.1499ZM12 5.9249L9.96198 10.3449L5.12898 10.9169L8.70197 14.2219L7.75297 18.9949L12 16.6179L16.247 18.9949L15.298 14.2219L18.871 10.9169L14.038 10.3439L12 5.9249Z" fill="#000091"/>
</g>
</svg>

<svg xmlns="http://www.w3.org/2000/svg" width="24" height="25" fill="none"><path fill="#000091" fill-rule="evenodd" d="m12 1.15 3.386 7.34 8.027.952-5.935 5.488 1.575 7.928L12 18.91l-7.053 3.948 1.575-7.928L.587 9.442l8.027-.952zm0 4.775-2.038 4.42-4.833.572 3.573 3.305-.949 4.773L12 16.618l4.247 2.377-.949-4.773 3.573-3.305-4.833-.573z" clip-rule="evenodd"/></svg>
